X: 8592
T: Cronin's
R: reel
M: 4/4
K: Cmajor
|:D3 E FA A2|defe dB B2|B/c/d Ad Bd b2|1 afde fe e2:|2 af e/f/g fd d2||
|:a^gab af f2|gfed fd d2|BdAd B/c/d b2|1 afde fe e2:|2 afeg fd d2||

